;FLAVOR:Marlin
;TIME:9951
;Filament used: 8.38334m
;Layer height: 0.2
;MINX:25.202
;MINY:131.202
;MINZ:0.2
;MAXX:304.789
;MAXY:198.785
;MAXZ:3.5
;TARGET_MACHINE.NAME:Tronxy X5SA 400
;Generated with Cura_SteamEngine 5.7.2
M104 S190
M105
M109 S190
M82 ;absolute extrusion mode
; X5SA Start Code
G21 ; Set units to millimeters
G90 ; Set all axis to Absolute
M82 ; Set extrusion to Absolute
M107 ; Disable all fans
M190 S80 ; Set bed temperature and wait
G28 ; Home all axis
; Uncomment the line below to enable ABL Mesh probing
; G29 ; Probe bed mesh for ABL
; For best results do not run nozzle heater while performing ABL
G1 Z5.0 ; Raise nozzle to prevent scratching of heat bed
G1 X0 Y0 ; Move nozzle to Home before heating
; M109 S190 T0 ; Set nozzle temp and wait
G92 E0 ; Set Extruder position to zero
; Uncomment the following lines to enable nozzle purge line along left edge of bed
;G1 Z2.0 F3000 ; Raise Z axis
;G1 X1.1 Y20 Z0.2 F3600.0 ; Move to purge line start position
;G1 Y290 F1500.0 E15 ; Draw first purge line
;G1 X1.4 F3600.0 ; Move to side
;G1 Y20 F1500.0 E30 ; Draw second purge line
;G92 E0 ; Reset Extruder
;G1 Z2.0 F3000 ; Move Z Axis up little to prevent scratching of Heat Bed
;G1 X5 Y20 Z0.2 F3600.0 ; Move over to finish nozzle wipe
;G92 E0
G92 E0
G92 E0
G1 F2700 E-12
;LAYER_COUNT:15
;LAYER:0
M107
G1 F300 Z0.7
G0 F2700 X34.986 Y141.794 Z0.7
;TYPE:SKIRT
G1 F300 Z0.2
G1 F2700 E0
G1 F1800 X36.719 Y141.386 E0.05625
G1 X37.305 Y141.299 E0.07497
G1 X69.228 Y141.221 E1.08365
G1 X69.618 Y140.068 E1.12211
G1 X70.151 Y138.854 E1.164
G1 X70.703 Y137.836 E1.20059
G1 X71.312 Y136.926 E1.23519
G1 X72.163 Y135.86 E1.27829
G1 X73.156 Y134.841 E1.32325
G1 X73.77 Y134.31 E1.3489
G1 X74.923 Y133.471 E1.39395
G1 X75.883 Y132.892 E1.42938
G1 X77.113 Y132.299 E1.47252
G1 X77.988 Y131.955 E1.50223
G1 X78.486 Y131.794 E1.51877
G1 X80.219 Y131.386 E1.57502
G1 X80.805 Y131.299 E1.59374
G1 X247.744 Y131.202 E6.86853
G1 X250.606 Y131.547 E6.95962
G1 X251.179 Y131.693 E6.9783
G1 X252.249 Y132.045 E7.0139
G1 X253.479 Y132.564 E7.05608
G1 X254.294 Y132.987 E7.08509
G1 X255.753 Y133.945 E7.14024
G1 X256.608 Y134.633 E7.17492
G1 X257.695 Y135.694 E7.22291
G1 X258.198 Y136.28 E7.24731
G1 X259.067 Y137.481 E7.29415
G1 X259.59 Y138.348 E7.32615
G1 X260.208 Y139.627 E7.37103
G1 X260.525 Y140.434 E7.39843
G1 X260.769 Y141.212 E7.42419
G1 X292.479 Y141.285 E8.42614
G1 X293.794 Y141.483 E8.46816
G1 X294.868 Y141.749 E8.50312
G1 X295.661 Y142.012 E8.52951
G1 X297.067 Y142.608 E8.57777
G1 X297.864 Y143.029 E8.60625
G1 X299.253 Y143.945 E8.65882
G1 X300.108 Y144.633 E8.6935
G1 X301.195 Y145.694 E8.74149
G1 X301.698 Y146.28 E8.76589
G1 X302.567 Y147.481 E8.81273
G1 X303.09 Y148.348 E8.84473
G1 X303.708 Y149.627 E8.88961
G1 X304.025 Y150.433 E8.91698
G1 X304.238 Y151.094 E8.93892
G1 X304.531 Y152.299 E8.9781
G1 X304.706 Y153.453 E9.01498
G1 X304.789 Y155.117 E9.06763
G1 X304.686 Y156.728 E9.11863
G1 X304.453 Y158.114 E9.16304
G1 X304.323 Y158.625 E9.1797
G1 X303.855 Y160 E9.22559
G1 X304.025 Y160.433 E9.24029
G1 X304.238 Y161.094 E9.26224
G1 X304.531 Y162.299 E9.30142
G1 X304.706 Y163.453 E9.3383
G1 X304.789 Y165.117 E9.39094
G1 X304.686 Y166.728 E9.44195
G1 X304.453 Y168.114 E9.48636
G1 X304.323 Y168.625 E9.50302
G1 X303.855 Y170 E9.54891
G1 X304.025 Y170.433 E9.56361
G1 X304.238 Y171.094 E9.58555
G1 X304.531 Y172.299 E9.62474
G1 X304.706 Y173.453 E9.66162
G1 X304.789 Y175.117 E9.71426
G1 X304.686 Y176.728 E9.76527
G1 X304.453 Y178.114 E9.80968
G1 X304.323 Y178.625 E9.82634
G1 X303.869 Y179.965 E9.87104
G1 X303.349 Y181.147 E9.91184
G1 X302.797 Y182.165 E9.94843
G1 X302.189 Y183.071 E9.98291
G1 X301.338 Y184.137 E10.02601
G1 X300.243 Y185.255 E10.07545
G1 X299.782 Y185.652 E10.09468
G1 X298.816 Y186.365 E10.13261
G1 X297.172 Y187.346 E10.19311
G1 X296.65 Y187.593 E10.21135
G1 X295.456 Y188.065 E10.25192
G1 X295.044 Y188.198 E10.2656
G1 X293.281 Y188.614 E10.32284
G1 X292.695 Y188.701 E10.34155
G1 X260.771 Y188.779 E11.35026
G1 X260.369 Y189.965 E11.38983
G1 X259.849 Y191.147 E11.43063
G1 X259.297 Y192.165 E11.46722
G1 X258.689 Y193.071 E11.5017
G1 X257.838 Y194.137 E11.5448
G1 X256.743 Y195.255 E11.59425
G1 X256.282 Y195.652 E11.61347
G1 X255.316 Y196.365 E11.65141
G1 X253.672 Y197.346 E11.7119
G1 X253.15 Y197.593 E11.73014
G1 X251.956 Y198.065 E11.77071
G1 X251.544 Y198.198 E11.78439
G1 X249.781 Y198.614 E11.84163
G1 X249.195 Y198.701 E11.86035
G1 X81.962 Y198.785 E17.14443
G1 X79.887 Y198.542 E17.21044
G1 X78.352 Y198.162 E17.26041
G1 X77.841 Y197.988 E17.27746
G1 X76.403 Y197.374 E17.32687
G1 X75.403 Y196.833 E17.36279
G1 X74.275 Y196.076 E17.40572
G1 X73.36 Y195.34 E17.44282
G1 X72.347 Y194.352 E17.48753
G1 X71.804 Y193.724 E17.51376
G1 X70.951 Y192.552 E17.55956
G1 X70.497 Y191.807 E17.58713
G1 X69.757 Y190.302 E17.64012
G1 X69.563 Y189.811 E17.6568
G1 X69.242 Y188.787 E17.69071
G1 X37.543 Y188.717 E18.69231
G1 X36.164 Y188.509 E18.73638
G1 X35.187 Y188.266 E18.76819
G1 X34.161 Y187.923 E18.80237
G1 X33.319 Y187.574 E18.83117
G1 X31.948 Y186.855 E18.88009
G1 X30.775 Y186.076 E18.92458
G1 X29.86 Y185.34 E18.96168
G1 X28.847 Y184.352 E19.00639
G1 X28.304 Y183.724 E19.03262
G1 X27.451 Y182.552 E19.07843
G1 X26.997 Y181.807 E19.10599
G1 X26.257 Y180.302 E19.15898
G1 X26.073 Y179.839 E19.17473
G1 X25.661 Y178.544 E19.21766
G1 X25.486 Y177.795 E19.24197
G1 X25.237 Y175.997 E19.29932
G1 X25.202 Y175.275 E19.32216
G1 X25.331 Y173.151 E19.3894
G1 X25.547 Y171.886 E19.42995
G1 X25.677 Y171.375 E19.44661
G1 X26.133 Y170.028 E19.49154
G1 X25.661 Y168.544 E19.54075
G1 X25.486 Y167.795 E19.56505
G1 X25.237 Y165.997 E19.6224
G1 X25.202 Y165.275 E19.64524
G1 X25.331 Y163.151 E19.71248
G1 X25.547 Y161.886 E19.75303
G1 X25.677 Y161.375 E19.76969
G1 X26.133 Y160.028 E19.81462
G1 X25.661 Y158.544 E19.86383
G1 X25.486 Y157.795 E19.88813
G1 X25.237 Y155.997 E19.94548
G1 X25.202 Y155.275 E19.96832
G1 X25.331 Y153.151 E20.03556
G1 X25.547 Y151.886 E20.07611
G1 X25.677 Y151.375 E20.09277
G1 X26.118 Y150.068 E20.13635
G1 X26.651 Y148.854 E20.17825
G1 X27.203 Y147.836 E20.21484
G1 X27.812 Y146.926 E20.24944
G1 X28.663 Y145.86 E20.29254
G1 X29.656 Y144.841 E20.33749
G1 X30.27 Y144.31 E20.36314
G1 X31.423 Y143.471 E20.4082
G1 X32.383 Y142.892 E20.44362
G1 X33.613 Y142.299 E20.48677
G1 X34.488 Y141.955 E20.51647
G1 X34.986 Y141.794 E20.53301
G0 F2700 X35.109 Y142.175
G1 F1800 X36.778 Y141.782 E20.58719
G1 X37.364 Y141.695 E20.60591
G1 X69.516 Y141.62 E21.62182
G1 X69.984 Y140.229 E21.66819
G1 X70.503 Y139.045 E21.70904
G1 X71.055 Y138.027 E21.74563
G1 X71.625 Y137.176 E21.778
G1 X72.476 Y136.11 E21.82109
G1 X73.418 Y135.144 E21.86373
G1 X74.032 Y134.613 E21.88938
G1 X75.13 Y133.814 E21.93228
G1 X76.09 Y133.235 E21.96771
G1 X77.26 Y132.671 E22.00875
G1 X78.111 Y132.336 E22.03764
G1 X78.609 Y132.175 E22.05418
G1 X80.278 Y131.782 E22.10836
G1 X80.864 Y131.695 E22.12708
G1 X247.744 Y131.602 E27.40001
G1 X250.507 Y131.935 E27.48794
G1 X251.08 Y132.081 E27.50663
G1 X252.093 Y132.414 E27.54032
G1 X253.323 Y132.933 E27.5825
G1 X254.109 Y133.342 E27.6105
G1 X255.502 Y134.257 E27.66316
G1 X256.357 Y134.945 E27.69784
G1 X257.391 Y135.955 E27.74351
G1 X257.894 Y136.541 E27.76791
G1 X258.724 Y137.688 E27.81264
G1 X259.247 Y138.555 E27.84464
G1 X259.836 Y139.774 E27.88741
G1 X260.144 Y140.556 E27.91397
G1 X260.365 Y141.245 E27.93683
G1 X260.454 Y141.611 E27.94873
G1 X292.419 Y141.681 E28.95874
G1 X293.734 Y141.879 E29.00076
G1 X294.742 Y142.129 E29.03357
G1 X295.535 Y142.392 E29.05997
G1 X296.881 Y142.962 E29.10616
G1 X297.644 Y143.363 E29.13339
G1 X299.002 Y144.257 E29.18477
G1 X299.857 Y144.945 E29.21944
G1 X300.891 Y145.955 E29.26511
G1 X301.394 Y146.541 E29.28951
G1 X302.224 Y147.688 E29.33425
G1 X302.747 Y148.555 E29.36624
G1 X303.336 Y149.774 E29.40902
G1 X303.644 Y150.556 E29.43558
G1 X303.857 Y151.217 E29.45752
G1 X304.142 Y152.393 E29.49575
G1 X304.306 Y153.473 E29.53027
G1 X304.389 Y155.137 E29.58291
G1 X304.291 Y156.662 E29.6312
G1 X304.065 Y158.015 E29.67454
G1 X303.935 Y158.526 E29.6912
G1 X303.505 Y159.801 E29.73372
G1 X303.422 Y159.991 E29.74027
G1 X303.644 Y160.556 E29.75945
G1 X303.857 Y161.217 E29.78139
G1 X304.142 Y162.393 E29.81963
G1 X304.306 Y163.473 E29.85414
G1 X304.389 Y165.137 E29.90679
G1 X304.291 Y166.662 E29.95507
G1 X304.065 Y168.015 E29.99841
G1 X303.935 Y168.526 E30.01507
G1 X303.505 Y169.801 E30.05759
G1 X303.422 Y169.991 E30.06414
G1 X303.644 Y170.556 E30.08332
G1 X303.857 Y171.217 E30.10527
G1 X304.142 Y172.393 E30.1435
G1 X304.306 Y173.473 E30.17802
G1 X304.389 Y175.137 E30.23066
G1 X304.291 Y176.662 E30.27894
G1 X304.065 Y178.015 E30.32229
G1 X303.935 Y178.526 E30.33895
G1 X303.503 Y179.804 E30.38157
G1 X302.997 Y180.956 E30.42133
G1 X302.445 Y181.974 E30.45792
G1 X301.876 Y182.821 E30.49016
G1 X301.025 Y183.887 E30.53326
G1 X299.981 Y184.952 E30.58038
G1 X299.544 Y185.33 E30.59864
G1 X298.578 Y186.043 E30.63658
G1 X297.001 Y186.984 E30.6946
G1 X296.479 Y187.231 E30.71285
G1 X295.333 Y187.684 E30.75179
G1 X294.921 Y187.817 E30.76546
G1 X293.222 Y188.218 E30.82062
G1 X292.636 Y188.305 E30.83934
G1 X260.484 Y188.38 E31.85526
G1 X260.003 Y189.804 E31.90275
G1 X259.497 Y190.956 E31.9425
G1 X258.945 Y191.974 E31.97909
G1 X258.376 Y192.821 E32.01134
G1 X257.525 Y193.887 E32.05443
G1 X256.481 Y194.952 E32.10156
G1 X256.044 Y195.33 E32.11981
G1 X255.078 Y196.043 E32.15775
G1 X253.501 Y196.984 E32.21578
G1 X252.979 Y197.231 E32.23402
G1 X251.833 Y197.684 E32.27296
G1 X251.421 Y197.817 E32.28664
G1 X249.722 Y198.218 E32.3418
G1 X249.136 Y198.305 E32.36052
G1 X81.962 Y198.385 E37.64274
G1 X79.983 Y198.154 E37.70569
G1 X78.48 Y197.783 E37.75461
G1 X77.998 Y197.62 E37.77068
G1 X76.593 Y197.022 E37.81893
G1 X75.626 Y196.501 E37.85364
G1 X74.526 Y195.764 E37.89548
G1 X73.611 Y195.028 E37.93258
G1 X72.65 Y194.09 E37.97501
G1 X72.107 Y193.462 E38.00124
G1 X71.293 Y192.344 E38.04494
G1 X70.839 Y191.599 E38.07251
G1 X70.129 Y190.154 E38.12338
G1 X69.945 Y189.691 E38.13912
G1 X69.536 Y188.388 E38.18227
G1 X37.603 Y188.321 E39.19126
G1 X36.224 Y188.113 E39.23533
G1 X35.314 Y187.887 E39.26496
G1 X34.314 Y187.553 E39.29827
G1 X33.472 Y187.204 E39.32707
G1 X32.169 Y186.522 E39.37354
G1 X31.026 Y185.764 E39.41687
G1 X30.111 Y185.028 E39.45398
G1 X29.15 Y184.09 E39.49641
G1 X28.607 Y183.462 E39.52264
G1 X27.793 Y182.344 E39.56634
G1 X27.339 Y181.599 E39.59391
G1 X26.629 Y180.154 E39.64478
G1 X26.445 Y179.691 E39.66052
G1 X26.051 Y178.453 E39.70157
G1 X25.876 Y177.704 E39.72587
G1 X25.637 Y175.978 E39.78093
G1 X25.602 Y175.256 E39.80377
G1 X25.725 Y173.218 E39.86828
G1 X25.935 Y171.985 E39.9078
G1 X26.065 Y171.474 E39.92446
G1 X26.495 Y170.196 E39.96707
G1 X26.574 Y170.015 E39.97331
G1 X26.445 Y169.69 E39.98436
G1 X26.051 Y168.453 E40.02538
G1 X25.876 Y167.704 E40.04968
G1 X25.637 Y165.978 E40.10474
G1 X25.602 Y165.256 E40.12758
G1 X25.725 Y163.218 E40.19209
G1 X25.935 Y161.985 E40.23161
G1 X26.065 Y161.474 E40.24827
G1 X26.495 Y160.196 E40.29088
G1 X26.574 Y160.015 E40.29712
G1 X26.445 Y159.69 E40.30817
G1 X26.051 Y158.453 E40.34919
G1 X25.876 Y157.704 E40.37349
G1 X25.637 Y155.978 E40.42855
G1 X25.602 Y155.256 E40.45139
G1 X25.725 Y153.218 E40.5159
G1 X25.935 Y151.985 E40.55542
G1 X26.065 Y151.474 E40.57208
G1 X26.484 Y150.229 E40.61359
G1 X27.003 Y149.045 E40.65443
G1 X27.555 Y148.027 E40.69102
G1 X28.125 Y147.176 E40.72339
G1 X28.976 Y146.11 E40.76649
G1 X29.918 Y145.144 E40.80912
G1 X30.532 Y144.613 E40.83477
G1 X31.63 Y143.814 E40.87768
G1 X32.59 Y143.235 E40.9131
G1 X33.76 Y142.671 E40.95414
G1 X34.611 Y142.336 E40.98304
G1 X35.109 Y142.175 E40.99957
G0 F2700 X35.232 Y142.556
G1 F1800 X36.837 Y142.178 E41.05167
G1 X37.423 Y142.091 E41.07039
G1 X69.839 Y142.019 E42.09465
G1 X69.953 Y141.573 E42.10919
G1 X70.351 Y140.389 E42.14866
G1 X70.855 Y139.236 E42.18842
G1 X71.407 Y138.218 E42.22501
G1 X71.938 Y137.426 E42.25514
G1 X72.789 Y136.36 E42.29824
G1 X73.68 Y135.447 E42.33855
G1 X74.294 Y134.916 E42.3642
G1 X75.337 Y134.157 E42.40496
G1 X76.297 Y133.578 E42.44038
G1 X77.433 Y133.032 E42.4802
G1 X78.234 Y132.717 E42.5074
G1 X78.732 Y132.556 E42.52394
G1 X80.337 Y132.178 E42.57604
G1 X80.923 Y132.091 E42.59476
G1 X247.744 Y132.002 E47.86582
G1 X250.408 Y132.323 E47.95061
G1 X250.981 Y132.469 E47.96929
G1 X251.937 Y132.783 E48.00108
G1 X253.167 Y133.302 E48.04327
G1 X253.89 Y133.677 E48.069
G1 X255.251 Y134.569 E48.12042
G1 X256.106 Y135.257 E48.15509
G1 X257.087 Y136.216 E48.19844
G1 X257.59 Y136.802 E48.22284
G1 X258.381 Y137.895 E48.26547
G1 X258.904 Y138.762 E48.29747
G1 X259.464 Y139.921 E48.33814
G1 X259.763 Y140.679 E48.36389
G1 X259.976 Y141.34 E48.38583
G1 X260.139 Y142.01 E48.40762
G1 X292.359 Y142.077 E49.42568
G1 X293.674 Y142.275 E49.4677
G1 X294.616 Y142.509 E49.49837
G1 X295.409 Y142.772 E49.52476
G1 X296.696 Y143.316 E49.56891
G1 X297.424 Y143.697 E49.59488
G1 X298.751 Y144.569 E49.64505
G1 X299.606 Y145.257 E49.67972
G1 X300.587 Y146.216 E49.72307
G1 X301.09 Y146.802 E49.74747
G1 X301.881 Y147.895 E49.7901
G1 X302.404 Y148.762 E49.8221
G1 X302.964 Y149.921 E49.86277
G1 X303.263 Y150.679 E49.88851
G1 X303.476 Y151.34 E49.91046
G1 X303.753 Y152.487 E49.94774
G1 X303.906 Y153.493 E49.97989
G1 X303.989 Y155.157 E50.03254
G1 X303.892 Y156.636 E50.07937
G1 X303.677 Y157.916 E50.12038
G1 X303.547 Y158.427 E50.13704
G1 X303.138 Y159.642 E50.17755
G1 X302.99 Y159.983 E50.18929
G1 X303.263 Y160.679 E50.21292
G1 X303.476 Y161.34 E50.23486
G1 X303.753 Y162.487 E50.27214
G1 X303.906 Y163.493 E50.3043
G1 X303.989 Y165.157 E50.35694
G1 X303.892 Y166.636 E50.40377
G1 X303.677 Y167.916 E50.44478
G1 X303.547 Y168.427 E50.46144
G1 X303.138 Y169.642 E50.50195
G1 X302.99 Y169.983 E50.5137
G1 X303.263 Y170.679 E50.53732
G1 X303.476 Y171.34 E50.55926
G1 X303.753 Y172.487 E50.59655
G1 X303.906 Y173.493 E50.6287
G1 X303.989 Y175.157 E50.68134
G1 X303.892 Y176.636 E50.72817
G1 X303.677 Y177.916 E50.76918
G1 X303.547 Y178.427 E50.78585
G1 X303.137 Y179.643 E50.82639
G1 X302.645 Y180.765 E50.8651
G1 X302.093 Y181.783 E50.90169
G1 X301.563 Y182.571 E50.9317
G1 X300.712 Y183.637 E50.9748
G1 X299.719 Y184.649 E51.0196
G1 X299.282 Y185.027 E51.03785
G1 X298.373 Y185.7 E51.07359
G1 X296.83 Y186.622 E51.13039
G1 X296.308 Y186.869 E51.14863
G1 X295.21 Y187.303 E51.18594
G1 X294.798 Y187.436 E51.19962
G1 X293.163 Y187.822 E51.2527
G1 X292.577 Y187.909 E51.27142
G1 X260.161 Y187.981 E52.29567
G1 X260.047 Y188.427 E52.31022
G1 X259.637 Y189.643 E52.35077
G1 X259.145 Y190.765 E52.38948
G1 X258.593 Y191.783 E52.42607
G1 X258.063 Y192.571 E52.45607
G1 X257.212 Y193.637 E52.49917
G1 X256.219 Y194.649 E52.54397
G1 X255.782 Y195.027 E52.56223
G1 X254.873 Y195.7 E52.59797
G1 X253.33 Y196.622 E52.65476
G1 X252.808 Y196.869 E52.67301
G1 X251.71 Y197.303 E52.71031
G1 X251.298 Y197.436 E52.72399
G1 X249.663 Y197.822 E52.77707
G1 X249.077 Y197.909 E52.79579
G1 X81.962 Y197.985 E58.07615
G1 X80.079 Y197.766 E58.13605
G1 X78.608 Y197.404 E58.18391
G1 X78.126 Y197.241 E58.19999
G1 X76.782 Y196.67 E58.24613
G1 X75.848 Y196.168 E58.27963
G1 X74.777 Y195.452 E58.32034
G1 X73.862 Y194.716 E58.35744
G1 X72.953 Y193.828 E58.3976
G1 X72.41 Y193.2 E58.42383
G1 X71.635 Y192.136 E58.46542
G1 X71.181 Y191.391 E58.49299
G1 X70.501 Y190.006 E58.54174
G1 X70.317 Y189.543 E58.55748
G1 X69.941 Y188.362 E58.59664
G1 X69.854 Y187.989 E58.60875
G1 X37.663 Y187.925 E59.62589
G1 X36.284 Y187.717 E59.66996
G1 X35.44 Y187.507 E59.69744
G1 X34.467 Y187.183 E59.72984
G1 X33.625 Y186.834 E59.75864
G1 X32.355 Y186.168 E59.80395
G1 X31.277 Y185.452 E59.84484
G1 X30.362 Y184.716 E59.88195
G1 X29.453 Y183.828 E59.9221
G1 X28.91 Y183.2 E59.94833
G1 X28.135 Y182.136 E59.98992
G1 X27.681 Y181.391 E60.01749
G1 X27.001 Y180.006 E60.06624
G1 X26.817 Y179.543 E60.08198
G1 X26.441 Y178.362 E60.12115
G1 X26.266 Y177.613 E60.14545
G1 X26.037 Y175.959 E60.19821
G1 X26.002 Y175.237 E60.22105
G1 X26.119 Y173.285 E60.28284
G1 X26.323 Y172.084 E60.32133
G1 X26.453 Y171.573 E60.33799
G1 X26.862 Y170.356 E60.37856
G1 X27.007 Y170.023 E60.39003
G1 X26.817 Y169.543 E60.40634
G1 X26.441 Y168.362 E60.44551
G1 X26.266 Y167.613 E60.46981
